X: 154
T:L'erbo de San Jan
R:Scottish
C:Provence
N:Scottish
O:France
I:abc2nwc
Z:Transcrit et/ou corrig par Michel BELLON - 2005-07-25
Z:Pour toute observation mailto:galouvielle@free.fr
M:2/4
L:1/16
K:Bbmaj
"^Scottish"b2f2 g2fe|dcde fdcB|b2f2 g2fe|dcde f4:|
|:f2fg f4|edef d4|BcBc dcdf| [1edcf d2B2:| [2edcd B4|]
%%footer $D   Galouvielle-MBe 2008 \nScottish (France)
